www/assets/icons/table_chart.svg

<svg xmlns="http://www.w3.org/2000/svg" width="24" height="24" viewBox="0 0 24 24" fill='currentColor'><path d="M9.5 10.02h5V21h-5zm7 10.98h3c1.1 0 2-.9 2-2v-9h-5zm3-18h-15c-1.1 0-2 .9-2 2v3h19V5c0-1.1-.9-2-2-2m-17 16c0 1.1.9 2 2 2h3V10h-5z"/></svg>

<svg width="24" height="24" viewBox="0 0 24 24" xmlns="http://www.w3.org/2000/svg" fill='currentColor'><path d="M9.5 10.02H14.5V21H9.5V10.02ZM16.5 21H19.5C20.6 21 21.5 20.1 21.5 19V10H16.5V21ZM19.5 3H4.5C3.4 3 2.5 3.9 2.5 5V8H21.5V5C21.5 3.9 20.6 3 19.5 3ZM2.5 19C2.5 20.1 3.4 21 4.5 21H7.5V10H2.5V19Z"/></svg>
